X: 23693
T: Liquid Sunshine
R: reel
M: 4/4
K: Dmajor
B/c/B|:A2dA cAdf|adbd adfa|be~e2 efed|cecB AFGB|
A2dA cAdf|adbd adfa|be~e2 efed|1 cABc d2cB:|2 cABc d2zA||
|:|A2fe fedc|dAAB AFDA,|B,2DB, A,DDE|FEDF E2FB|
A2fe fedc|dAAB AFDA,|B,2DB, A,DDE|FDE/F/E D2FG:|
|:A2FD E/G/EDe|fddA B/c/BAB|dBBA BcdB|AFDF E2FG|
A2FD E/G/EDe|fddA B/c/BAB|dBBA BcdB|AFE/G/E D2B/c/B:|

